public/error.svg

<svg width="24" height="24" fill="none" xmlns="http://www.w3.org/2000/svg"><path d="M11 15h2v2h-2v-2Zm0-8h2v6h-2V7Zm.99-5C6.47 2 2 6.48 2 12s4.47 10 9.99 10C17.52 22 22 17.52 22 12S17.52 2 11.99 2ZM12 20c-4.42 0-8-3.58-8-8s3.58-8 8-8 8 3.58 8 8-3.58 8-8 8Z" fill="#DA1414"/></svg>

<svg width="24" height="24" viewBox="0 0 24 24" fill="none" xmlns="http://www.w3.org/2000/svg">
<path d="M11 15H13V17H11V15ZM11 7H13V13H11V7ZM11.99 2C6.47 2 2 6.48 2 12C2 17.52 6.47 22 11.99 22C17.52 22 22 17.52 22 12C22 6.48 17.52 2 11.99 2ZM12 20C7.58 20 4 16.42 4 12C4 7.58 7.58 4 12 4C16.42 4 20 7.58 20 12C20 16.42 16.42 20 12 20Z" fill="#DA1414"/>
</svg>
